assets/images/icons/arrow-right.svg

<?xml version="1.0" encoding="UTF-8"?>
<svg width="14px" height="14px" viewBox="0 0 14 14" version="1.1" xmlns="http://www.w3.org/2000/svg" xmlns:xlink="http://www.w3.org/1999/xlink">
    <title></title>
    <desc></desc>
    <defs></defs>
    <g id="Design" stroke="none" stroke-width="1" fill="none" fill-rule="evenodd">
        <g id="Singular-Mobile" transform="translate(-41.000000, -1013.000000)" fill="#69737D" fill-rule="nonzero">
            <g id="Group-7" transform="translate(30.000000, 951.000000)">
                <g id="Group-6-Copy" transform="translate(18.000000, 69.000000) scale(-1, 1) translate(-18.000000, -69.000000) translate(11.000000, 62.000000)">
                    <path d="M13.125,6.125 C13.6082492,6.125 14,6.51675084 14,7 C14,7.48324916 13.6082492,7.875 13.125,7.875 L0.875,7.875 C0.391750844,7.875 0,7.48324916 0,7 C0,6.51675084 0.391750844,6.125 0.875,6.125 L13.125,6.125 Z" id="Shape"></path>
                    <path d="M2.11243687,7 L7.61871843,12.5062816 C7.96042719,12.8479903 7.96042719,13.4020097 7.61871843,13.7437184 C7.27700968,14.0854272 6.72299032,14.0854272 6.38128157,13.7437184 L0.256281566,7.61871843 C-0.0854271888,7.27700968 -0.0854271888,6.72299032 0.256281566,6.38128157 L6.38128157,0.256281566 C6.72299032,-0.0854271888 7.27700968,-0.0854271888 7.61871843,0.256281566 C7.96042719,0.597990322 7.96042719,1.15200968 7.61871843,1.49371843 L2.11243687,7 Z" id="Shape"></path>
                </g>
            </g>
        </g>
    </g>
</svg>

<svg height="14" viewBox="0 0 14 14" width="14" xmlns="http://www.w3.org/2000/svg"><g fill="#69737d" transform="matrix(-1 0 0 1 14 0)"><path d="m13.125 6.125c.4832492 0 .875.39175084.875.875s-.3917508.875-.875.875h-12.25c-.48324916 0-.875-.39175084-.875-.875s.39175084-.875.875-.875z"/><path d="m2.11243687 7 5.50628156 5.5062816c.34170876.3417087.34170876.8957281 0 1.2374368-.34170875.3417088-.89572811.3417088-1.23743686 0l-6.125-6.12499997c-.34170876-.34170875-.34170876-.89572811 0-1.23743686l6.125-6.125c.34170875-.34170876.89572811-.34170876 1.23743686 0 .34170876.34170875.34170876.89572811 0 1.23743686z"/></g></svg>
